X:35
T:Banks of Loch Ness, The
R:Slow Strathspey
B:The Athole Collection
M:C
L:1/8
Q:1/4=140
K:G Minor
F|D<G G>A B>c d2|F<F F>D F2 F>A|G<G G>A B>c d<f|d/c/B/A/ d>^F G2G:|
f|d>Bf>B g>Bd>f|F<F F>D F2 F>f|d>fB>d c>B c<d|G<G G>^F G2 G>f|
d>Bf>B g>Bf>e|d>Bc>A ~B>GF>D|b>ag>f dB|A>ed>^F G2G||
